X: 4151
T: WHITE HEATHER
R: Strathspey.
%R: strathspey
B: James Kerr "Merry Melodies" v.4 p.18 #151
Z: 2016 John Chambers <jc:trillian.mit.edu>
M: C
L: 1/8
K: F
f |\
c<A A>F B>cd>f | c<A A>F G3 d |\
c<A A>F B>df>d | (3cdc (3BAG F3 ::\
c |\
f<f a<f b>ag>c |
f<f a>f d3 e |\
[1 f<f a>f b>ag>f | (3efg (3cde f3 :|\
[2 f<f a>f d<d b>g | (3efg (3cde f3 |]

%%sep 1 1 500
%%sep 1 1 500

